public/images/ifos/helmet.svg

<svg width="96" height="96" viewBox="0 0 96 96" fill="none" xmlns="http://www.w3.org/2000/svg">
<circle cx="48" cy="48" r="48" fill="white"/>
<mask id="mask0" mask-type="alpha" maskUnits="userSpaceOnUse" x="9" y="20" width="78" height="48">
<path d="M47.8833 20.9756H49.1086C73.0179 20.9756 85.2526 45.1159 85.2526 61.0738C86.9565 62.0961 87.509 64.3062 86.4867 66.01C85.8365 67.0937 84.6654 67.7568 83.4016 67.7568H13.3169C11.3686 67.7568 9.78918 66.1774 9.78918 64.2291C9.78918 62.8929 10.5441 61.6714 11.7393 61.0738C11.7393 45.1159 23.7114 20.9756 47.8833 20.9756Z" fill="white"/>
</mask>
<g mask="url(#mask0)">
<path d="M47.8833 20.9756H49.1086C73.0179 20.9756 85.2526 45.1159 85.2526 61.0738C86.9565 62.0961 87.509 64.3062 86.4867 66.01C85.8365 67.0937 84.6654 67.7568 83.4016 67.7568H13.3169C11.3686 67.7568 9.78918 66.1774 9.78918 64.2291C9.78918 62.8929 10.5441 61.6714 11.7393 61.0738C11.7393 45.1159 23.7114 20.9756 47.8833 20.9756Z" fill="#FF8200"/>
<path fill-rule="evenodd" clip-rule="evenodd" d="M34.1299 20.6685L49.0734 20.6685C65.2808 20.6685 78.0753 43.3572 78.0753 61.8792L82.3778 64.3524C83.2445 64.8507 83.5432 65.9572 83.045 66.8239C82.7221 67.3856 82.1236 67.7319 81.4757 67.7319H1.81013C0.810423 67.7319 0 66.9215 0 65.9218C0 65.2178 0.408161 64.5776 1.04642 64.2806L6.20695 61.8792C6.20695 43.3572 17.9225 20.6685 34.1299 20.6685Z" fill="#FF9600"/>
<path d="M10.8633 48.1973L84.8349 48.1973V55.5886L10.8633 55.5886L10.8633 48.1973Z" fill="black"/>
<path d="M48.4995 62.3022C54.4977 62.3022 59.3603 57.4396 59.3603 51.4414C59.3603 45.4431 54.4977 40.5806 48.4995 40.5806C42.5012 40.5806 37.6387 45.4431 37.6387 51.4414C37.6387 57.4396 42.5012 62.3022 48.4995 62.3022Z" fill="black" fill-opacity="0.119427"/>
</g>
<path d="M47.8957 62.3022C53.894 62.3022 58.7565 57.4396 58.7565 51.4414C58.7565 45.4431 53.894 40.5806 47.8957 40.5806C41.8975 40.5806 37.0349 45.4431 37.0349 51.4414C37.0349 57.4396 41.8975 62.3022 47.8957 62.3022Z" fill="white"/>
<g filter="url(#filter0_i)">
<path d="M47.5 61C52.7467 61 57 56.7467 57 51.5C57 46.2533 52.7467 42 47.5 42C42.2533 42 38 46.2533 38 51.5C38 56.7467 42.2533 61 47.5 61Z" fill="white"/>
</g>
<path fill-rule="evenodd" clip-rule="evenodd" d="M47.8952 43.9651C43.7662 43.9651 40.4189 47.3123 40.4189 51.4414C40.4189 55.5704 43.7662 58.9177 47.8952 58.9177C52.0243 58.9177 55.3715 55.5704 55.3715 51.4414C55.3715 47.3123 52.0243 43.9651 47.8952 43.9651ZM36.9915 51.4414C36.9915 45.4194 41.8732 40.5376 47.8952 40.5376C53.9172 40.5376 58.799 45.4194 58.799 51.4414C58.799 57.4634 53.9172 62.3451 47.8952 62.3451C41.8732 62.3451 36.9915 57.4634 36.9915 51.4414Z" fill="black"/>
<path d="M44.0768 27.1261C42.3293 23.5986 41.7782 22.5465 42.1271 21.1428C42.6699 18.9617 45.1276 16.9658 47.9458 17.0004C50.4048 17.0307 52.6522 18.6049 53.6111 20.9894C53.76 21.4706 53.4347 23.1297 51.5173 27.2266C50.3226 29.8315 49.0191 32.883 47.9048 34.9505C46.6411 32.3364 45.365 29.7282 44.0768 27.1261Z" fill="#FFAA30"/>
<path d="M43.5217 27.1217C41.784 23.6131 41.2358 22.5667 41.5829 21.1705C42.1227 19.001 44.5667 17.0158 47.3693 17.0502C49.8145 17.0804 52.0495 18.6461 53.003 21.0179C53.1511 21.4965 52.8276 23.1467 50.9208 27.2217C49.7328 29.8127 48.4366 32.8478 47.3285 34.9043C46.0717 32.3041 44.8028 29.7099 43.5217 27.1217Z" fill="#FFAA30"/>
<path d="M31.6878 32.1947C30.4514 30.7169 29.0763 29.3689 27.5822 28.1703C27.3865 28.0924 24.7181 27.0843 22.4641 28.7662C20.5883 30.1656 19.8074 32.8243 20.6259 35.2753C22.15 35.1077 24.0146 35.0557 26.1084 35.3363C30.6565 35.9453 34.0491 37.8219 36.0263 39.156C35.1555 37.2073 33.7977 34.718 31.6878 32.1947Z" fill="#FFAA30"/>
<path d="M35.5666 38.5677C34.7194 36.7187 33.3997 34.3564 31.3522 31.9599C30.1525 30.5564 28.8188 29.2756 27.3704 28.136C27.1809 28.0617 24.5969 27.0998 22.4204 28.6881C20.6091 30.0096 19.8602 32.5273 20.6581 34.852C22.1322 34.697 23.9359 34.6522 25.9622 34.9234C30.3639 35.5116 33.6505 37.2985 35.5666 38.5677Z" fill="#FFAA30"/>
<path d="M63.9174 32.7235C65.1538 31.2457 66.5289 29.8977 68.023 28.6991C68.2187 28.6212 70.8871 27.6131 73.1412 29.295C75.017 30.6944 75.7979 33.3531 74.9794 35.8041C73.4552 35.6365 71.5906 35.5845 69.4968 35.8651C64.9487 36.4741 61.5561 38.3507 59.5789 39.6849C60.4497 37.7361 61.8075 35.2469 63.9174 32.7235Z" fill="#FF8A00"/>
<path d="M60.0385 38.5682C60.8857 36.7192 62.2054 34.3569 64.2529 31.9604C65.4526 30.5568 66.7863 29.2761 68.2347 28.1365C68.4242 28.0622 71.0082 27.1003 73.1847 28.6886C74.996 30.0101 75.7449 32.5278 74.947 34.8525C73.4729 34.6975 71.6692 34.6527 69.6429 34.9239C65.2412 35.5121 61.9546 37.299 60.0385 38.5682Z" fill="#FFAA30"/>
<defs>
<filter id="filter0_i" x="35.7822" y="42" width="21.2178" height="19" filterUnits="userSpaceOnUse" color-interpolation-filters="sRGB">
<feFlood flood-opacity="0" result="BackgroundImageFix"/>
<feBlend mode="normal" in="SourceGraphic" in2="BackgroundImageFix" result="shape"/>
<feColorMatrix in="SourceAlpha" type="matrix" values="0 0 0 0 0 0 0 0 0 0 0 0 0 0 0 0 0 0 127 0" result="hardAlpha"/>
<feOffset dx="-2.21778"/>
<feGaussianBlur stdDeviation="1.10889"/>
<feComposite in2="hardAlpha" operator="arithmetic" k2="-1" k3="1"/>
<feColorMatrix type="matrix" values="0 0 0 0 0.909804 0 0 0 0 0.905882 0 0 0 0 0.913725 0 0 0 1 0"/>
<feBlend mode="normal" in2="shape" result="effect1_innerShadow"/>
</filter>
</defs>
</svg>

<svg xmlns="http://www.w3.org/2000/svg" xmlns:xlink="http://www.w3.org/1999/xlink" width="96" height="96" fill="none" xmlns:v="https://vecta.io/nano"><circle cx="48" cy="48" r="48" fill="#fff"/><mask id="A" mask-type="alpha" maskUnits="userSpaceOnUse" x="9" y="20" width="78" height="48"><use xlink:href="#C" fill="#fff"/></mask><g mask="url(#A)"><use xlink:href="#C" fill="#ff8200"/><path fill-rule="evenodd" d="M34.13 20.669h14.944c16.207 0 29.002 22.689 29.002 41.211l4.302 2.473a1.81 1.81 0 0 1-.902 3.379H1.81a1.81 1.81 0 0 1-.764-3.451l5.161-2.401c0-18.522 11.716-41.211 27.923-41.211z" fill="#ff9600"/><path d="M10.863 48.197h73.972v7.391H10.863v-7.391z" fill="#000"/><path d="M48.5 62.302c5.998 0 10.861-4.863 10.861-10.861S54.498 40.581 48.5 40.581s-10.861 4.863-10.861 10.861S42.501 62.302 48.5 62.302z" fill="#000" fill-opacity=".119"/></g><path d="M47.896 62.302c5.998 0 10.861-4.863 10.861-10.861s-4.863-10.861-10.861-10.861-10.861 4.863-10.861 10.861 4.863 10.861 10.861 10.861z" fill="#fff"/><g filter="url(#B)"><path d="M47.5 61a9.5 9.5 0 1 0 0-19 9.5 9.5 0 1 0 0 19z" fill="#fff"/></g><path fill-rule="evenodd" d="M47.895 43.965a7.48 7.48 0 0 0-7.476 7.476 7.48 7.48 0 0 0 7.476 7.476 7.48 7.48 0 0 0 7.476-7.476 7.48 7.48 0 0 0-7.476-7.476zm-10.904 7.476c0-6.022 4.882-10.904 10.904-10.904s10.904 4.882 10.904 10.904-4.882 10.904-10.904 10.904-10.904-4.882-10.904-10.904z" fill="#000"/><g fill="#ffaa30"><path d="M44.077 27.126c-1.747-3.527-2.299-4.58-1.95-5.983.543-2.181 3.001-4.177 5.819-4.142 2.459.03 4.706 1.605 5.665 3.989.149.481-.176 2.14-2.094 6.237l-3.612 7.724-3.828-7.824z"/><path d="M43.522 27.122c-1.738-3.509-2.286-4.555-1.939-5.951.54-2.169 2.984-4.155 5.786-4.12 2.445.03 4.68 1.596 5.634 3.968.148.479-.175 2.129-2.082 6.204l-3.592 7.683-3.807-7.783zm-11.834 5.073a29.08 29.08 0 0 0-4.106-4.024c-.196-.078-2.864-1.086-5.118.596-1.876 1.399-2.657 4.058-1.838 6.509a22.58 22.58 0 0 1 5.482.061c4.548.609 7.941 2.486 9.918 3.82-.871-1.949-2.229-4.438-4.338-6.961z"/><path d="M35.567 38.568a28.35 28.35 0 0 0-4.214-6.608c-1.2-1.404-2.533-2.684-3.982-3.824-.189-.074-2.773-1.036-4.95.552-1.811 1.322-2.56 3.839-1.762 6.164a22.34 22.34 0 0 1 5.304.071c4.402.588 7.688 2.375 9.604 3.644z"/></g><path d="M63.917 32.724a29.08 29.08 0 0 1 4.106-4.024c.196-.078 2.864-1.086 5.118.596 1.876 1.399 2.657 4.058 1.838 6.509-1.524-.168-3.389-.22-5.483.061-4.548.609-7.941 2.486-9.918 3.82.871-1.949 2.229-4.438 4.339-6.961z" fill="#ff8a00"/><path d="M60.039 38.568a28.35 28.35 0 0 1 4.214-6.608 28.08 28.08 0 0 1 3.982-3.824c.189-.074 2.773-1.036 4.95.552 1.811 1.322 2.56 3.839 1.762 6.164a22.34 22.34 0 0 0-5.304.071c-4.402.588-7.688 2.375-9.604 3.644z" fill="#ffaa30"/><defs><filter id="B" x="35.782" y="42" width="21.218" height="19" filterUnits="userSpaceOnUse" color-interpolation-filters="sRGB"><feFlood flood-opacity="0"/><feBlend in="SourceGraphic" result="B"/><feColorMatrix in="SourceAlpha" values="0 0 0 0 0 0 0 0 0 0 0 0 0 0 0 0 0 0 127 0" result="C"/><feOffset dx="-2.21778"/><feGaussianBlur stdDeviation="1.109"/><feComposite in2="C" operator="arithmetic" k2="-1" k3="1"/><feColorMatrix values="0 0 0 0 0.909804 0 0 0 0 0.905882 0 0 0 0 0.913725 0 0 0 1 0"/><feBlend in2="B"/></filter><path id="C" d="M47.883 20.976h1.225c23.909 0 36.144 24.14 36.144 40.098a3.6 3.6 0 0 1-1.851 6.683H13.317a3.53 3.53 0 0 1-1.578-6.683c0-15.958 11.972-40.098 36.144-40.098z"/></defs></svg>
